X:291
T: ES WOLLT EIN JAEGER JAGEN
N: E1435
O: Europa, Mitteleuropa, Deutschland
R: Staende -, Jaeger - Lied
M: 4/4
L: 1/8
K: F
F2 | A2B2c2d2 | c4A3B
c2d4c2 | B4A4 | z2
c2c2c2 | c2d2B4 | c4
c4 | d4c2B2- | B2A2G4 | F8 | z2
c2c2c2 | c2d2B4 | c4
c4 | d4c2B2- | B2A2G4 | F6

